X:1
T:Bag of Meal
M:6/8
L:1/8
K:D
S:From Ryan's Mammoth Collection
"D"f2d "A"cAG|"D"A2d "A"cAG|"D"F2D D(ED)|F3 GED|!
"A"ABA cAG|"D"AGA A2d|"D"fed "A"cAc|1"D"d3dde:|2"D"d3d2e|]!
"D"f2d ded|fga afd|"C"e2=c cdc|efg gfe|!
"D"fga agf|"A7"gfg efg|"D"fed "A"cAc|1"D"d3d2e:|2"D"d3dde|]!
